X:1
T:Inter natos mulier
T:Giovanni Priuli
T:Source Ghirlanda Sacra---Venetia---Ang.Gardano (B.Magni)---1625. Editor : André Vierendeels (23/12/16).
T:Notes : Original clefs : C1, F4 Editorial accidentals above bthe staff Dotted brackets indicate black notes Figures in BC are notated in original print Original note values have been halved in 3-beat measures Music collected by Leonardo Simonetti
T:Inter natos mulierum
T:©
T:©
T:©
T:©
T:©
T:©
T:©
T:©
C:Giovanni Priuli
Z:©
%%score 1 2
L:1/8
Q:1/4=120
M:4/4
K:F
V:1 treble nm="Soprano" snm="S"
V:2 bass nm="MusicXML Part"
V:1
 B2 A2 d4- | d2 c>B c3 c | c2 FG A2 F2 | G4 G2 cc | _e2 c2 d4 | d3 d f4- |"^b""^b" f2 ee Td4 | %7
w: In- ter na-|* tos mu- li- e-|rum non sur- re- xit|ma- ior, non sur-|re- xit ma-|ior Io- an-|* ne Ba pti-|
 c6 A2 | c6 BB | A4 TA4 | G8 | z8 | z4 z2 c2 | c4- cFGE | F3 F F3 A | B3 c d4- | d3 ^F G3 G | %17
w: sta, Io-|an- ne Ba-|pti- *|sta,||o|ver- * ba sin- gu|la- ri- a O|Lau- dem Pre-|* cla- ris- si-|
 G6 dd | _e4- ee e>d | d4- Td2 d2 | c8 | z ccc e3 e | e2 f2 e4 | d2 AA B4 | G2 _e2 d3 d | %25
w: mam, O Io-|an- * ne Fe- li-|cis- * si-|me,|O be- a- tis- si-|me Io- an-|nes qui ex o-|re Al- tis- si-|
 cG c3 B B2- | BA A3 F G2- | G2 ^F2 G4 | z B _e3 d d2- | dc c3 B B2- | B2 A2 B4 | z4 B2 B2 | %32
w: mi de te au- di-|* re me- ru- i-|* * sti,|de te au- di-|* re me- ru- i-|* * sti,|in- ter|
 d6 B>A | c3 c c2 FG | A2 F2 G4 | G2 cd _e2 c2 | d4 d3 d | f6 _e>d | d4 c4 | z2 A2 c4- | c2 BB A4 | %41
w: na- tos mu-|li- e- rum non sur-|re- xit ma-|ior, non sur- re- xit|ma- ior Io-|an- ne Ba-|pti- sta,|Io- an-|* ne Ba- pti-|
 G8 | z8 | z8 | z8 | z4 c4- | c2 BA c4 | A8 | f6 _ed | f4 d4 |[M:3/2] d4 B2 c4 A2 | %51
w: sta,||||te|_ de- prae- ca-|mur,|te de- prae-|ca- mur|ut pro no- bis|
 B3 A G2 A2 A2 B2 | c4 c2 c2 d4 | c6 z6 | c4 A2 B4 G2 | A3 G F2 G2 G2 A2 | B4 B3 c A4 |[M:4/4] G8 | %58
w: Do- mi- num in- ter- pe-|la- re di- gne-|ris,|ut pro no- bis|Do- mi- num in- ter- pe-|la- re di- gne-|ris,|
 z8 | z2 G2 G2 A2 | B3 B B2 c2 | d2 D2 D2 E2 | F3 F F2 G2 | A8 | z4 f4- | f2 e2 d4- | d4 c4- | %67
w: |ut su- per-|ve- ni- at in|nos, ut su- per-|ve- ni- at in|nos,|gra-|* ti- a|_ Ie-|
 c4 B4 | A8- | A8- | A8 | A8 | z2 F2 F2 G2 | A3 A A2 B2 | c8- | c4 G4- | G2 F2 E4- | E4 G4- | %78
w: * su|Chri-|||sti,|ut su- per-|ve- ni- at in|nos|_ gra-|* ti- a|_ Ie-|
 G4 F4 | E8 | D8 | z2 F2 F2 G2 | A3 A A2 B2 | c4 c4- | c2 B2 A4- | A4 c4- | c4 B4 | A8- | A8- | %89
w: * su|Chri-|ste,|ut su- per-|ve- ni- at in|nos gra-|* ti- a|_ Ie-|* su|Chri-||
 A8 | G8 |] %91
w: |ste.|
V:2
"^BC" G,4 G,,2 G,,2 | B,,4 F,,4 | F,,8 | C,4 C,4 |"^b""^-natural" C,4 G,,4 |"^-natural" G,,4 D,4 | %6
 _E,2 C,2 G,4 | C,D,E,C, F,4- | F,2 E,2 D,2 C,2 | D,8 | G,,6 C,2 | C,4- C,G,,G,,E,, | %12
 F,,3 F,, F,,4- | F,,G,,A,,B,, C,4 | F,,8 | B,,4 B,,3 C, |"^#""^-natural" D,4 G,,4 | %17
"^-natural" G,,8 | C,2 D,2 _E,2 F,2 | G,8 | C,4 C,F,F,G, | A,4 ^G,2 A,2 | ^C,2 D,2 A,4 | D,4 G,,4 | %24
"^b" C,4 G,4 | C,4 G,,4 | A,,4 B,,4 | C,2 D,2 =B,,2 C,2 | G,2 C,2 F,2 D,2 | _E,2 F,2 D,3 E, | %30
 F,4 B,,4 | _E,2 E,2 G,4 | G,,2 G,,2 B,,4 | F,,8 | F,,4 C,4 |"^b" C,4 C,4 | %36
"^-natural""^-natural" G,,4 G,,4 | D,4 _E,2 C,2 | G,4 C,D,E,C, | F,6 E,2 | D,2 C,2 D,4 | z4 B,4- | %42
 B,2 A,G, _E,4- | E,2 D,C, D,4 | G,4 C,4 | A,,6 G,,F,, | C,8 | F,,4 D,4- | D,2 C,B,, F,4- | %49
 F,4 B,,4 |[M:3/2] B,4 G,2 A,4 F,2 | G,3 F, E,2 F,2 F,2 G,2 | A,4 E,2 F,2 G,4 | %53
 C,4 A,,2 B,,4 G,,2 | A,,2 F,,4 G,,2 E,,4 | F,3 E, D,2 _E,2 E,2 F,2 | G,6 C,2 D,4 | %57
[M:4/4] G,,2 C,2 C,2 D,2 | _E,3 E, E,2 F,2 | G,8- | G,2 G,,2 G,,2 A,,2 | B,,3 B,, B,,2 C,2 | D,8 | %63
 F,6 E,2 | D,6 C,2 | B,,6 A,,2 | G,,4 A,,4 | B,,4 G,,4 | D,2 D,,2 D,,2 E,,2 | F,,3 F,, G,,4 | %70
 A,,8 | D,6 C,2 | B,,8 | F,2 F,,2 F,,2 G,,2 | A,,3 A,, A,,2 B,,2 | C,8 | C,6 B,,2 | A,,4 E,,4 | %78
 F,,4 D,,4 | A,,8 | D,2 B,,2 B,,2 C,2 | D,3 D, D,2 E,2 | F,2 F,,2 F,,2 G,,2 | A,,3 A,, A,,2 B,,2 | %84
 C,4 F,3 E, | D,4 A,,4 | B,,4 G,,4 | D,4 F,4- | F,4 _E,4 | D,8 | G,,8 |] %91

